public/avatar/hat/36.svg

<svg xmlns:xlink="http://www.w3.org/1999/xlink" height="92.9" width="100.7" xmlns="http://www.w3.org/2000/svg"><use height="27.95" transform="translate(19.8 37.55)" width="37.6" xlink:href="#a"/><defs><g id="a"><path d="M3.75-11.7.8-7.6-.6-4.25q1.05-3.8 4.35-7.45M-.9-4.15-1.7-6l-2.9-4.65q3.05 3.8 3.7 6.5M-5.15-6.4l-.15 2.05h-.05v-.05l.05.05-.05-.05.2-2M-15.65-3l3.1 4.4-1.85-.1h1.7Q-14.2-.3-15.65-3m-1.65 4.5 1.25 1.85 2.7 1.5Q-16.3 4.3-17.3 1.5m30.6 3.85 3.35 1.9-2.95.6L15.9 7l-2.6-1.65M1.9 6.75l.1.1h-.1v-.1m4.4.75.05-.05.4.5-.45-.45" fill="#dbd000" fill-rule="evenodd" transform="translate(18.85 12.2)"/><path d="m3.2-10.1-.4 5.35q.1.6-.35 2.5l2.1-1-.4-4.35-.75-2.5h-.2M-.6-4.25.8-7.6l2.95-4.1L5.2-3.9v.15l1.15-.55 4.85-1.6 2.15-.3-1.65 2.75-1.3 1.7 1.25-.1 4.55.3 1.85.5-1.9 1.6q-1.4.85-3.3 1.35l.15.05-.2.05-2.55.35-.6-.15-3-.85L8.9 3l-.65.05-.8-.15-.65-.45-.1-.05-.6-.2-.6-1.1Q4.95.25 4-.25l3.95-3.2 2.25-.15L7.65-.75 9.8-1.5q.65-.5 2.9-4.25l-7.9 2.5 2.6-.15-3.95 1.3-2.15.6 1-7.15-3.3 6.1q-.4.25-.85.45L-4.3-6.85l-.2.8.8 5.45-1.05-1.55-.05-.05v.05L-8.85-5.1l.35 2.35 2.7 3.85L-9 .05l-4.8-.95 3.6 4.15-4.5-.4 2.6 1.9.25.4-1.75 2.2 1 1.05.7-.5v.15l-.2.2-2.25 6.35-4-3 4.4-3.35.35-.15-4.2-1.15 1.8-.35 3.15-1.6.05-.05-.55-.1-2.7-1.5-1.25-1.85-.05-.1 2.95-.1 1.85.1-3.1-4.4 5.95 1.3 1.05.35-.05-.1-1.65-5-.2-1.8 2.4 1.4L-6.2-5.2l.85.95v-.1h.05l.15-2.05.55-4.25L-1.7-6l.8 1.85.05.05v.05l.05.35v.05l.2-.6M15.1-1.3l.3-.1-4-.1-3.2.75-1.25.5L6.8.1l1.9.25-.3.5q-.45.8 0 .65L17.15-1l-2.05-.3m1.3 4.7h.05l.75.25-2.05 1.2-1.65.55-1.8-1.25h.35l4.35-.75m-3.45 4.7.85.45.45.25.4.2.45.2.25.15.65.3.45.25 1.8.85-4 .6 2.55 3.9h-2.65l-2.4-6.5-.4-.4.8 2.55.05.3-1.2-.35-2.2-3.1-2.3-2.3.05-1.5 1.85 1.8 3.65 5.15-1.5-4.35 1 1.7 1.9-1.4-3.9-2.7h.7l3.5 2.6-.7 1.2-.3.05.2.1m-6.7 1.8-.1 1L4.8 9.7 3.1 8l-.75-.85 2.3 1.95-2-5.6-.75 1.05q-.2-1.7-.75-2.7Q.6 1-.8 1.45l-.15.05.05.15L-3.85.6h3.6l1.45.6.1-.05 1.65.35q.8.7 1.05 1.25L5.95 7.9l.3-.95.05.45.05.05-.05.05-.05 2.4M1.7 9.55l-.2 1.55-.6-.65-1.4-1.6 1.65 1.5-2.35-5.9-1.95-1 .4-.6-1.5-.25-.85.8-.4.55-3.25-1.45 3.3-.15-.15-.1 4.2-.2.6-.15.85 2.95 1.4 5.05.45-3.05H2l-.3 2.7m-12.5 1.2-1.8 1.3.65-3.7.3-.6.1-.05.25 1.9 5.35-4.25L-5.6 7l.3 1.75-.05-.05-.6-2.35-3.05 3-1.8 1.4m-.95-2.9-.15.15.05-.1.1-.05m6.95-.05 1.45-2.9 1 .6L-.5 8.85l-1.25-1.6-.5-1h-.25q-.45 1.3-2.6 3.1l-.2-.6.2-.4.25.5.05-1.05" fill="#bcd2e9" fill-rule="evenodd" transform="translate(18.85 12.2)"/><path d="M3.2-10.1h.2l.75 2.5.4 4.35-2.1 1q.45-1.9.35-2.5l.4-5.35m4.2 6.7-2.6.15 7.9-2.5Q10.45-2 9.8-1.5l-2.15.75L10.2-3.6l-2.25.15-.55.05m7.7 2.1 2.05.3L8.4 1.5q-.45.15 0-.65l.3-.5.2-.35 5.4-1.35.8.05m-16 2.95-.05-.15.15-.05q1.4-.45 1.95.4.55 1 .75 2.7v2.3L1.45 9.9.05 4.85-.8 1.9l-.1-.25m-4.6 2.3.4-.55.85-.8 1.5.25-.4.6L-4.25 5q-.45 1.05-.55 2.8l-.05 1.05-.25-.5L-5.6 7l-.35-1.65q-.05-.7.45-1.4" fill="#fff" fill-rule="evenodd" transform="translate(18.85 12.2)"/><path d="m-11.9 7.9-.7.5-1-1.05 1.75-2.2-.25-.4-2.6-1.9 4.5.4-3.6-4.15 4.8.95 3.2 1.05-2.7-3.85-.35-2.35 4.05 2.95h.05L-3.7-.6l-.8-5.45.2-.8 2.45 4.75q.45-.2.85-.45l3.3-6.1-1 7.15 2.15-.6L7.4-3.4l.55-.05L4-.25 1.5-.9q-2.65-.25-2.55.4Q-1 0 .5-.1L2 .8l.95.7-1.65-.35-.1.05L-.25.6h-3.6L-.9 1.65l.1.25-.6.15-4.2.2.15.1-3.3.15 3.25 1.45q-.5.7-.45 1.4L-11.3 9.6l-.25-1.9-.1.05-.1.1-.1.05v-.15l-.05.15m22.15-5.55L12.8 2l3.6 1.4-2.2-.15-1.25-.35-.45-.05h-.15l-2.1-.5M8.7.35 6.8.1l.15-.35 1.25-.5 3.2-.75 4 .1-.3.1-.8-.05L8.9 0l-.2.35m2.3 10.5.05.05-.25-.1q-2.4-.85-2.85-1.55l-1.2-1.3-.4-.5-.05-.05-.05-.45.25-1.5 2.3 2.3 2.2 3.1m-1.45-6.7 3.9 2.7-1.9 1.4-1-1.7-1-1.95-.3-.3v-.05L9.1 4l.3.15h.15m-7.65.4.75-1.05 2 5.6-2.3-1.95-.35-.3-.1-.1v-2.2m-5.05-1.1 1.95 1 2.35 5.9-1.65-1.5-1.85-3.35-1-.6-1.45 2.9q.1-1.75.55-2.8l1.1-1.55M-5.6 7l.5 1.35-.2.4L-5.6 7" fill="#9bbcdd" fill-rule="evenodd" transform="translate(18.85 12.2)"/><path d="M-4.8-2.15v-.05l.05.05h-.05" fill="#b8ae00" fill-rule="evenodd" transform="translate(18.85 12.2)"/><path d="m10.8 10.8-.25 2.4-.05.45L6.25 9.9l.05-2.4.45.45 1.2 1.3q.45.7 2.85 1.55m-6-1.1-.9 2.8-2.2-2.95.3-2.7.35.3.75.85 1.7 1.7m-3.9.75q-.1.75-.7 1.5l-.45.55q-1.55-1-2.4-2.65L-5 12.25l-.8-2.1q-2.65 1.1-4.95 3.1l-.05-2.5 1.8-1.4 3.05-3 .6 2.35.05.05.2.6q2.15-1.8 2.6-3.1h.25l.5 1 1.25 1.6 1.4 1.6" fill="#004166" fill-opacity=".4" fill-rule="evenodd" transform="translate(18.85 12.2)"/><path d="M-.6-4.25.8-7.6l2.95-4.1L5.2-3.9l1.15-.4 4.85-1.6 2.15-.3-1.65 2.75-1.05 1.6h1l4.55.3 1.85.5-1.9 1.6-.7.45-2.45.95-.2.05 3.6 1.4h.05l.75.25-2.05 1.2-1.65.55M-.85-4.05v-.05l-.05-.05L-1.7-6l-2.9-4.65-.55 4.25-.15 2.05m-.9-.85-1.95-1.65-2.4-1.4.2 1.8 1.65 5-1-.25-5.95-1.3 3.1 4.4-1.85-.1-3.15-.15.25.35 1.25 1.85 2.7 1.5.5.15-4.95 1.95 3.85 1.3-4.4 3.35 4 3M13.3 5.35l3.35 1.9-3.7.85.85.45.45.25.85.4.25.15.65.3.45.25 1.8.85-4 .6 2.55 3.9h-2.65M-6.2-5.2l.85.8m4.75.15-.25.2" fill="none" stroke="#28809f" stroke-linecap="round" stroke-linejoin="round" transform="translate(18.85 12.2)"/><path d="m-5.3-4.35-.05-.05" fill="none" stroke="#004566" stroke-linecap="round" stroke-linejoin="round" transform="translate(18.85 12.2)"/></g></defs></svg>

<?xml version="1.0" encoding="UTF-8" standalone="no"?>
<svg xmlns:xlink="http://www.w3.org/1999/xlink" height="92.9px" width="100.7px" xmlns="http://www.w3.org/2000/svg">
  <g transform="matrix(1.0, 0.0, 0.0, 1.0, 38.65, 49.75)">
    <use height="27.95" transform="matrix(1.0, 0.0, 0.0, 1.0, -18.85, -12.2)" width="37.6" xlink:href="#shape0"/>
  </g>
  <defs>
    <g id="shape0" transform="matrix(1.0, 0.0, 0.0, 1.0, 18.85, 12.2)">
      <path d="M3.75 -11.7 L0.8 -7.6 -0.6 -4.25 Q0.45 -8.05 3.75 -11.7 M-0.9 -4.15 L-1.7 -6.0 -4.6 -10.65 Q-1.55 -6.85 -0.9 -4.15 M-5.15 -6.4 L-5.3 -4.35 -5.35 -4.35 -5.35 -4.4 -5.3 -4.35 -5.35 -4.4 -5.15 -6.4 M-15.65 -3.0 L-12.55 1.4 -14.4 1.3 -12.7 1.3 Q-14.2 -0.3 -15.65 -3.0 M-17.3 1.5 L-16.05 3.35 -13.35 4.85 Q-16.3 4.3 -17.3 1.5 M13.3 5.35 L16.65 7.25 13.7 7.85 15.9 7.0 13.3 5.35 M1.9 6.75 L2.0 6.85 1.9 6.85 1.9 6.75 M6.3 7.5 L6.35 7.45 6.75 7.95 6.3 7.5" fill="#dbd000" fill-rule="evenodd" stroke="none"/>
      <path d="M3.2 -10.1 L2.8 -4.75 Q2.9 -4.15 2.45 -2.25 L4.55 -3.25 4.15 -7.6 3.4 -10.1 3.2 -10.1 M-0.6 -4.25 L0.8 -7.6 3.75 -11.7 5.2 -3.9 5.2 -3.75 6.35 -4.3 11.2 -5.9 13.35 -6.2 11.7 -3.45 10.4 -1.75 11.65 -1.85 16.2 -1.55 18.05 -1.05 16.15 0.55 Q14.75 1.4 12.85 1.9 L13.0 1.95 12.8 2.0 10.25 2.35 9.65 2.2 6.65 1.35 8.9 3.0 8.25 3.05 7.45 2.9 6.8 2.45 6.7 2.4 6.1 2.2 5.5 1.1 Q4.95 0.25 4.0 -0.25 L7.95 -3.45 10.2 -3.6 7.65 -0.75 9.8 -1.5 Q10.45 -2.0 12.7 -5.75 L4.8 -3.25 7.4 -3.4 3.45 -2.1 1.3 -1.5 2.3 -8.65 -1.0 -2.55 Q-1.4 -2.3 -1.85 -2.1 L-4.3 -6.85 -4.5 -6.05 -3.7 -0.6 -4.75 -2.15 -4.8 -2.2 -4.8 -2.15 -8.85 -5.1 -8.5 -2.75 -5.8 1.1 -9.0 0.05 -13.8 -0.9 -10.2 3.25 -14.7 2.85 -12.1 4.75 -11.85 5.15 -13.6 7.35 -12.6 8.4 -11.9 7.9 -11.9 8.05 -12.1 8.25 -14.35 14.6 -18.35 11.6 -13.95 8.25 -13.6 8.1 -17.8 6.95 -16.0 6.6 -12.85 5.0 -12.8 4.95 -13.35 4.85 -16.05 3.35 -17.3 1.5 -17.35 1.4 -14.4 1.3 -12.55 1.4 -15.65 -3.0 -9.7 -1.7 -8.65 -1.35 -8.7 -1.45 -10.35 -6.45 -10.55 -8.25 -8.15 -6.85 -6.2 -5.2 -5.35 -4.25 -5.35 -4.35 -5.3 -4.35 -5.15 -6.4 -4.6 -10.65 -1.7 -6.0 -0.9 -4.15 -0.85 -4.1 -0.85 -4.05 -0.8 -3.7 -0.8 -3.65 -0.6 -4.25 M15.1 -1.3 L15.4 -1.4 11.4 -1.5 8.2 -0.75 6.95 -0.25 6.8 0.1 8.7 0.35 8.4 0.85 Q7.95 1.65 8.4 1.5 L17.15 -1.0 15.1 -1.3 M16.4 3.4 L16.45 3.4 17.2 3.65 15.15 4.85 13.5 5.4 11.7 4.15 12.05 4.15 16.4 3.4 M12.95 8.1 L13.8 8.55 14.25 8.8 14.65 9.0 15.1 9.2 15.35 9.35 16.0 9.65 16.45 9.9 18.25 10.75 14.25 11.35 16.8 15.25 14.15 15.25 11.75 8.75 11.35 8.35 12.15 10.9 12.2 11.2 11.0 10.85 8.8 7.75 6.5 5.45 6.55 3.95 8.4 5.75 12.05 10.9 10.55 6.55 11.55 8.25 13.45 6.85 9.55 4.15 10.25 4.15 13.75 6.75 13.05 7.95 12.75 8.0 12.95 8.1 M6.25 9.9 L6.15 10.9 4.8 9.7 3.1 8.0 2.35 7.15 4.65 9.1 2.65 3.5 1.9 4.55 Q1.7 2.85 1.15 1.85 0.6 1.0 -0.8 1.45 L-0.95 1.5 -0.9 1.65 -3.85 0.6 -0.25 0.6 1.2 1.2 1.3 1.15 2.95 1.5 Q3.75 2.2 4.0 2.75 L5.95 7.9 6.25 6.95 6.3 7.4 6.35 7.45 6.3 7.5 6.25 9.9 M1.7 9.55 L1.5 11.1 0.9 10.45 -0.5 8.85 1.15 10.35 -1.2 4.45 -3.15 3.45 -2.75 2.85 -4.25 2.6 -5.1 3.4 -5.5 3.95 -8.75 2.5 -5.45 2.35 -5.6 2.25 -1.4 2.05 -0.8 1.9 0.05 4.85 1.45 9.9 1.9 6.85 2.0 6.85 1.7 9.55 M-10.8 10.75 L-12.6 12.05 -11.95 8.35 -11.65 7.75 -11.55 7.7 -11.3 9.6 -5.95 5.35 -5.6 7.0 -5.3 8.75 -5.35 8.7 -5.95 6.35 -9.0 9.35 -10.8 10.75 M-11.75 7.85 L-11.9 8.0 -11.85 7.9 -11.75 7.85 M-4.8 7.8 L-3.35 4.9 -2.35 5.5 -0.5 8.85 -1.75 7.25 -2.25 6.25 -2.5 6.25 Q-2.95 7.55 -5.1 9.35 L-5.3 8.75 -5.1 8.35 -4.85 8.85 -4.8 7.8" fill="#bcd2e9" fill-rule="evenodd" stroke="none"/>
      <path d="M3.2 -10.1 L3.4 -10.1 4.15 -7.6 4.55 -3.25 2.45 -2.25 Q2.9 -4.15 2.8 -4.75 L3.2 -10.1 M7.4 -3.4 L4.8 -3.25 12.7 -5.75 Q10.45 -2.0 9.8 -1.5 L7.65 -0.75 10.2 -3.6 7.95 -3.45 7.4 -3.4 M15.1 -1.3 L17.15 -1.0 8.4 1.5 Q7.95 1.65 8.4 0.85 L8.7 0.35 8.9 0.0 14.3 -1.35 15.1 -1.3 M-0.9 1.65 L-0.95 1.5 -0.8 1.45 Q0.6 1.0 1.15 1.85 1.7 2.85 1.9 4.55 L1.9 6.75 1.9 6.85 1.45 9.9 0.05 4.85 -0.8 1.9 -0.9 1.65 M-5.5 3.95 L-5.1 3.4 -4.25 2.6 -2.75 2.85 -3.15 3.45 -4.25 5.0 Q-4.7 6.05 -4.8 7.8 L-4.85 8.85 -5.1 8.35 -5.6 7.0 -5.95 5.35 Q-6.0 4.65 -5.5 3.95" fill="#ffffff" fill-rule="evenodd" stroke="none"/>
      <path d="M-11.9 7.9 L-12.6 8.4 -13.6 7.35 -11.85 5.15 -12.1 4.75 -14.7 2.85 -10.2 3.25 -13.8 -0.9 -9.0 0.05 -5.8 1.1 -8.5 -2.75 -8.85 -5.1 -4.8 -2.15 -4.75 -2.15 -3.7 -0.6 -4.5 -6.05 -4.3 -6.85 -1.85 -2.1 Q-1.4 -2.3 -1.0 -2.55 L2.3 -8.65 1.3 -1.5 3.45 -2.1 7.4 -3.4 7.95 -3.45 4.0 -0.25 1.5 -0.9 Q-1.15 -1.15 -1.05 -0.5 -1.0 0.0 0.5 -0.1 L2.0 0.8 2.95 1.5 1.3 1.15 1.2 1.2 -0.25 0.6 -3.85 0.6 -0.9 1.65 -0.8 1.9 -1.4 2.05 -5.6 2.25 -5.45 2.35 -8.75 2.5 -5.5 3.95 Q-6.0 4.65 -5.95 5.35 L-11.3 9.6 -11.55 7.7 -11.65 7.75 -11.75 7.85 -11.85 7.9 -11.85 7.75 -11.9 7.9 M10.25 2.35 L12.8 2.0 16.4 3.4 14.2 3.25 12.95 2.9 12.5 2.85 12.35 2.85 10.25 2.35 M8.7 0.35 L6.8 0.1 6.95 -0.25 8.2 -0.75 11.4 -1.5 15.4 -1.4 15.1 -1.3 14.3 -1.35 8.9 0.0 8.7 0.35 M11.0 10.85 L11.05 10.9 10.8 10.8 Q8.4 9.95 7.95 9.25 L6.75 7.95 6.35 7.45 6.3 7.4 6.25 6.95 6.5 5.45 8.8 7.75 11.0 10.85 M9.55 4.15 L13.45 6.85 11.55 8.25 10.55 6.55 9.55 4.6 9.25 4.3 9.25 4.25 9.1 4.0 9.4 4.15 9.55 4.15 M1.9 4.55 L2.65 3.5 4.65 9.1 2.35 7.15 2.0 6.85 1.9 6.75 1.9 4.55 M-3.15 3.45 L-1.2 4.45 1.15 10.35 -0.5 8.85 -2.35 5.5 -3.35 4.9 -4.8 7.8 Q-4.7 6.05 -4.25 5.0 L-3.15 3.45 M-5.6 7.0 L-5.1 8.35 -5.3 8.75 -5.6 7.0" fill="#9bbcdd" fill-rule="evenodd" stroke="none"/>
      <path d="M-4.8 -2.15 L-4.8 -2.2 -4.75 -2.15 -4.8 -2.15" fill="#b8ae00" fill-rule="evenodd" stroke="none"/>
      <path d="M10.8 10.8 L10.55 13.2 10.5 13.65 6.25 9.9 6.3 7.5 6.75 7.95 7.95 9.25 Q8.4 9.95 10.8 10.8 M4.8 9.7 L3.9 12.5 1.7 9.55 2.0 6.85 2.35 7.15 3.1 8.0 4.8 9.7 M0.9 10.45 Q0.8 11.2 0.2 11.95 L-0.25 12.5 Q-1.8 11.5 -2.65 9.85 L-5.0 12.25 -5.8 10.15 Q-8.45 11.25 -10.75 13.25 L-10.8 10.75 -9.0 9.35 -5.95 6.35 -5.35 8.7 -5.3 8.75 -5.1 9.35 Q-2.95 7.55 -2.5 6.25 L-2.25 6.25 -1.75 7.25 -0.5 8.85 0.9 10.45" fill="#004166" fill-opacity="0.4" fill-rule="evenodd" stroke="none"/>
      <path d="M-0.6 -4.25 L0.8 -7.6 3.75 -11.7 5.2 -3.9 6.35 -4.3 11.2 -5.9 13.35 -6.2 11.7 -3.45 10.65 -1.85 11.65 -1.85 16.2 -1.55 18.05 -1.05 16.15 0.55 15.45 1.0 13.0 1.95 12.8 2.0 16.4 3.4 16.45 3.4 17.2 3.65 15.15 4.85 13.5 5.4 M-0.85 -4.05 L-0.85 -4.1 -0.9 -4.15 -1.7 -6.0 -4.6 -10.65 -5.15 -6.4 -5.3 -4.35 M-6.2 -5.2 L-8.15 -6.85 -10.55 -8.25 -10.35 -6.45 -8.7 -1.45 -9.7 -1.7 -15.65 -3.0 -12.55 1.4 -14.4 1.3 -17.55 1.15 -17.3 1.5 -16.05 3.35 -13.35 4.85 -12.85 5.0 -17.8 6.95 -13.95 8.25 -18.35 11.6 -14.35 14.6 M13.3 5.35 L16.65 7.25 12.95 8.1 13.8 8.55 14.25 8.8 15.1 9.2 15.35 9.35 16.0 9.65 16.45 9.9 18.25 10.75 14.25 11.35 16.8 15.25 14.15 15.25 M-6.2 -5.2 L-5.35 -4.4 M-0.6 -4.25 L-0.85 -4.05" fill="none" stroke="#28809f" stroke-linecap="round" stroke-linejoin="round" stroke-width="1.0"/>
      <path d="M-5.3 -4.35 L-5.35 -4.4" fill="none" stroke="#004566" stroke-linecap="round" stroke-linejoin="round" stroke-width="1.0"/>
    </g>
  </defs>
</svg>
